X:139
T:Murdo MacKenzie of Torridon
O:scotland
R:Pipe march
M:6/8
L:1/8
C:Bobby MacLeod
K:Amix
|:A | A>ee e2A |A>ee d>Bg |G>Bd d>Bd|e<gG B>AG|\
A>ee e2A| A>ee d>Ba| g>fe d>eg| e>dB A2::\
B| A>aa a2A| A>aa g>ea| G>Bd d>Bd| e<gG B>AG\
|1 A>aa a2A| A>aa g>ea| g>fe d>eg| e>dB A2:|2\
e3 A2e| d>Bd e2a| g>fe d>eg| e>dB A2
|:G|A3 e3|A2e d>Bg|B3 G3| e<gG B>AG|\
A3 e3|A2e d>Ba|g>fe d>eg| e>dBA2:|\
|:B|A>aA g>Aa| A>gA a>Aa| g>fe d>ef| g>Gd B>AG\
|1 A>aA g>Aa| A>gA a>Aa|\
g>fe d>eg| e>dB A2:|2\
e3 A2e| d>Bd e2a| g>fe d>eg| e>dB A2|]
